icons/Adwaita-purple/scalable/mimetypes/font-x-generic.svg

<?xml version="1.0" encoding="UTF-8"?>
<svg height="128px" viewBox="0 0 128 128" width="128px" xmlns="http://www.w3.org/2000/svg">
    <path d="m 28 8 h 50 l 30.042969 29.917969 v 74.058593 c 0 4.433594 -3.609375 8.023438 -8.042969 8.023438 h -72 c -4.433594 0 -8 -3.566406 -8 -8 v -96 c 0 -4.433594 3.566406 -8 8 -8 z m 0 0" fill="#f6f5f4"/>
    <path d="m 78 8 v 22 c 0 4.433594 3.609375 7.921875 8.042969 7.921875 l 22 -0.003906 z m 0 0" fill="#deddda"/>
    <path d="m 35.988281 99.925781 v -2 h 60 v 2 z m 0 0" fill="#1a5fb4"/>
    <path d="m 63.707031 55.621094 c -6.925781 0 -13.933593 1.851562 -18.683593 5.234375 l 4.511718 8.777343 c 3.140625 -2.496093 7.890625 -4.027343 12.480469 -4.027343 c 6.761719 0 9.984375 3.140625 9.984375 8.535156 h -9.984375 c -13.207031 0 -18.601563 5.316406 -18.601563 12.964844 c 0 7.488281 6.039063 13.125 16.183594 13.125 c 6.363282 0 10.871094 -2.09375 13.207032 -6.039063 v 5.398438 h 11.757812 v -24.722656 c 0 -13.125 -7.652344 -19.246094 -20.855469 -19.246094 z m -0.96875 36.15625 c -4.425781 0 -7.085937 -2.09375 -7.085937 -5.234375 c 0 -2.898438 1.851562 -5.074219 7.730468 -5.074219 h 8.617188 v 4.429688 c -1.449219 3.945312 -5.074219 5.878906 -9.261719 5.878906 z m 0 0" fill="#3584e4"/>
    <g fill="#1a5fb4">
        <path d="m 89.988281 49.925781 h 2 v 56 h -2 z m 0 0"/>
        <path d="m 86.996094 49.925781 l 3.992187 -3.992187 l 3.992188 3.992187 z m 0 0"/>
        <path d="m 86.996094 103.933594 l 3.992187 3.992187 l 3.992188 -3.992187 z m 0 0"/>
    </g>
</svg>

<svg width="128" height="128" viewBox="0 0 128 128" fill="none" xmlns="http://www.w3.org/2000/svg">
<path d="M28 8H78L108.043 37.918V111.977C108.043 116.41 104.434 120 100 120H28C23.5664 120 20 116.434 20 112V16C20 11.5664 23.5664 8 28 8Z" fill="#F6F5F4"/>
<path d="M78 8V30C78 34.4336 81.6094 37.9219 86.043 37.9219L108.043 37.918L78 8Z" fill="#DEDDDA"/>
<path d="M35.9883 99.9258V97.9258H95.9883V99.9258H35.9883Z" fill="#613583"/>
<path d="M63.707 55.6211C56.7813 55.6211 49.7734 57.4727 45.0234 60.8555L49.5352 69.6328C52.6758 67.1367 57.4258 65.6055 62.0156 65.6055C68.7773 65.6055 72 68.7461 72 74.1406H62.0156C48.8086 74.1406 43.4141 79.457 43.4141 87.1055C43.4141 94.5937 49.4531 100.23 59.5977 100.23C65.9609 100.23 70.4687 98.1367 72.8047 94.1914V99.5898H84.5625V74.8672C84.5625 61.7422 76.9102 55.6211 63.707 55.6211ZM62.7383 91.7773C58.3125 91.7773 55.6523 89.6836 55.6523 86.543C55.6523 83.6445 57.5039 81.4688 63.3828 81.4688H72V85.8984C70.5508 89.8437 66.9258 91.7773 62.7383 91.7773Z" fill="#9141AC"/>
<path d="M89.9883 49.9258H91.9883V105.926H89.9883V49.9258Z" fill="#613583"/>
<path d="M86.9961 49.9258L90.9883 45.9336L94.9805 49.9258H86.9961Z" fill="#613583"/>
<path d="M86.9961 103.934L90.9883 107.926L94.9805 103.934H86.9961Z" fill="#613583"/>
</svg>
